!!!SOCIAL_FUNCTION:	children's dances
!!!PDT:	1956
!!!OTL: No_201_"Little_Fish"_Dance.krn
!!!LANG: Non-Tone
!!!LING_GROUP: Muskogean
!!!REG: Florida
**kern
*staff1
=1-
*clefF4
*k[f#]
*M3/4
2r
8r
8A\
=2
12G\L
12G\
12G\J
8.D\L
16D\Jk
8.BB/L
16D/Jk
=3
12G\L
12G\
12G\J
8.D\L
16D\Jk
8.BB/L
16A/Jk
=4
12G\L
12G\
12G\J
8.D\L
16D\Jk
8.BB/L
16D/Jk
=5||
*M4/4
12G\L
12G\
12G\J
8.D\L
16D\Jk
8BB/
4r
8A\
=6||
*M3/4
12G\L
12G\
12G\J
8.D\L
16D\Jk
16BB/
16r
8D\
=7
12G\L
12G\
12G\J
8.D\L
16D\Jk
16BB/
16r
8G\
=8||
*M3/8
8B\L
8G\
8F#\J
=9||
*M7/8
8G\L
8D\
8BB\
8D\
(8D\
16G\Jk)
16r
8D\
=10||
*M3/8
(8.G\L
16F#\Jk)
16r
16G\
=11||
*M7/8
8G\L
8D\
8BB\
8D\
8D\
8D\
8A\J
=12||
*M3/4
12G\L
12G\
12G\J
8.D\L
16D\Jk
8.BB/L
16D/Jk
=13
12G\L
24F#\Jk
24r
(12G\
12D\L)
12D\
12D\J
4BB/
==
*-
